X: 37004
T: Siege Of Ennis, The
R: polka
M: 2/4
K: Gmajor
Bd Bd|Bd d2|ed Bd|ed d2|
Bd Bd|Bd d2|ed BA|AG G2|
GB d2|ed c2|dB G>A|BA A2|
GB d2|ed c2|dB GE|ED D2||

